X:097 
T:Killaloe Boat, The
S:Junior Crehan
F:file ID: cre.5/097kill_b
B:CRE5.047 (BÃÂÃÂÃÂÃÂ¡d Chill Dalua)
Q:160
M:6/8
R:jig
K:Am
G|EAA EAA|BAB GBd|edB edB|dBA GED|
E3 ABc|BAB GBd|edB edB|BAA A2:|
B|de^f g2g|age edB|de^f g2g|age age|
de^f gab|age edB|edB edB|BAA A2:|

%%%

